src/assets/images/generic-landing/wallapop-logo-black-round.svg

<svg width="39" height="38" viewBox="0 0 39 38" fill="none" xmlns="http://www.w3.org/2000/svg">
<path d="M0.851562 17.0103C0.851562 7.76894 8.34316 0.277344 17.5845 0.277344V0.277344C26.8259 0.277344 34.3175 7.76894 34.3175 17.0103V17.0103C34.3175 26.2517 26.8259 33.7433 17.5845 33.7433V33.7433C8.34316 33.7433 0.851562 26.2517 0.851562 17.0103V17.0103Z" fill="black" stroke="white" stroke-width="4"/>
<path d="M19.4827 6.97266C17.2153 6.97266 15.5805 8.20836 14.6487 9.52908C14.5981 9.60107 14.5024 9.61921 14.4298 9.57159C13.9512 9.25983 13.1415 8.84208 12.0166 8.84208C9.62056 8.84208 7.54297 10.9059 7.54297 13.4521C7.54297 15.3947 8.59414 16.6865 9.18986 17.1808C9.25422 17.2341 9.27127 17.3282 9.22782 17.4001C8.83562 18.0594 8.44397 19.2299 8.44397 20.0988C8.44397 22.776 10.532 24.9464 13.1305 24.9464C13.9314 24.9464 14.5348 24.7928 14.784 24.7168C14.8566 24.6947 14.9336 24.7259 14.9721 24.7928C15.4188 25.5745 16.7835 27.0522 19.063 27.0522C21.398 27.0522 23.689 25.1675 23.8964 22.5935C23.9024 22.5187 23.9569 22.4569 24.0284 22.4427C26.128 22.0363 27.6225 20.0206 27.6225 17.8111C27.6225 15.6112 26.337 14.3443 25.5757 13.8251C25.5262 13.7917 25.4998 13.7333 25.5048 13.6721C25.7396 10.7393 23.5537 6.97266 19.4827 6.97266ZM10.488 19.8052C10.488 19.269 10.603 18.7231 10.8764 18.2238C10.8929 18.1937 10.955 18.0991 11.0584 18.124C11.4671 18.2419 11.8725 18.302 12.361 18.302C12.8577 18.302 13.2273 17.8956 13.2273 17.3962C13.2273 16.9348 12.8874 16.4989 12.3054 16.4989C11.1937 16.4989 9.73222 15.503 9.73222 13.6647C9.73222 12.0849 10.9578 10.8617 12.4055 10.8617C12.9672 10.8617 13.4457 10.9728 14.0464 11.3571C14.262 11.4949 14.4875 11.7363 14.9204 11.7363C15.2774 11.7363 15.509 11.5158 15.6141 11.2999C15.888 10.7353 16.987 9.17594 19.3936 9.17594C21.513 9.17594 23.442 11.2285 23.442 13.4453C23.442 14.7094 23.0289 15.4191 22.5641 16.131C22.4035 16.377 22.3788 16.5601 22.3788 16.7404C22.3788 17.3095 22.8232 17.6989 23.3089 17.6989C24.046 17.6989 24.5334 16.7687 24.854 16.1741C24.8931 16.1015 24.9921 16.0953 25.0394 16.1627C25.2396 16.4501 25.5499 17.1196 25.5499 18.001C25.5499 19.2486 24.5774 20.6884 22.8287 20.8482C22.2698 20.8992 21.9613 21.2076 21.9382 21.7891C21.8738 23.4171 20.6075 24.6477 19.03 24.6477C17.0734 24.6477 15.9997 22.6638 16.2037 21.0336C16.2868 20.3704 15.7763 20.0172 15.3258 20.0172C14.9182 20.0172 14.6261 20.2201 14.4595 20.5534C14.1899 21.0925 14.1756 22.1842 14.2274 22.615C14.2461 22.7698 14.1729 22.8554 13.5865 22.8554C12.0282 22.8531 10.488 21.6537 10.488 19.8052Z" fill="white"/>
</svg>

<svg width="39" height="38" viewBox="0 0 39 38" fill="none" xmlns="http://www.w3.org/2000/svg"><path d="M.852 17.01C.852 7.77 8.343.277 17.584.277c9.242 0 16.734 7.492 16.734 16.733 0 9.242-7.492 16.733-16.733 16.733C8.342 33.743.851 26.252.851 17.01Z" fill="#000" stroke="#fff" stroke-width="4"/><path d="M19.483 6.973c-2.268 0-3.902 1.235-4.834 2.556a.16.16 0 0 1-.22.043 4.352 4.352 0 0 0-2.412-.73c-2.396 0-4.474 2.064-4.474 4.61 0 1.943 1.051 3.234 1.647 3.729a.171.171 0 0 1 .038.22c-.392.658-.784 1.829-.784 2.698 0 2.677 2.088 4.847 4.686 4.847.801 0 1.405-.153 1.654-.23.073-.021.15.01.188.077.447.782 1.812 2.26 4.091 2.26 2.335 0 4.626-1.886 4.833-4.46a.167.167 0 0 1 .132-.15c2.1-.407 3.595-2.422 3.595-4.632 0-2.2-1.286-3.467-2.047-3.986a.166.166 0 0 1-.071-.153c.235-2.933-1.951-6.7-6.022-6.7Zm-8.995 12.832c0-.536.115-1.082.388-1.581.017-.03.079-.125.182-.1.41.118.815.178 1.303.178.497 0 .866-.406.866-.906a.886.886 0 0 0-.922-.897c-1.111 0-2.573-.996-2.573-2.834 0-1.58 1.226-2.803 2.674-2.803.561 0 1.04.11 1.64.495.216.138.442.38.874.38.357 0 .589-.221.694-.437.274-.565 1.373-2.124 3.78-2.124 2.119 0 4.048 2.053 4.048 4.27 0 1.263-.413 1.973-.878 2.685-.16.246-.185.43-.185.61 0 .569.444.958.93.958.737 0 1.224-.93 1.545-1.525a.108.108 0 0 1 .185-.011c.2.287.51.957.51 1.838 0 1.248-.972 2.687-2.72 2.847-.56.051-.868.36-.89.941-.065 1.628-1.331 2.859-2.909 2.859-1.957 0-3.03-1.984-2.826-3.614.083-.664-.428-1.017-.878-1.017a.92.92 0 0 0-.867.536c-.27.54-.283 1.631-.232 2.062.02.155-.054.24-.64.24-1.559-.002-3.099-1.201-3.099-3.05Z" fill="#fff"/></svg>
